X:18
T:Fermanagh Highland / Donegal Highland
R:highland
D:Altan: Island Angel
Z:Julie Ross
M:C|
K:D
"Fermanagh Highland"
A2FD AddB|A2FD EFGB|A2FA ~A2FA|1 BGEG FD dB:|2 BGEG FDD2||
|:dAFA ~f3e|dAFA Beec|1 dAFA ~f3A|GFEF GABc:|2 d2cd BcA2|(3Bcd ec d2 dB||
K:G
"Donegal Highland, aka Charlie O'Neill's"
A|:BEBE cBcA|BEBd cAFA|BEBE cBcB|1 Addc BGGA:|2 Addc BGBd||
g2fg ~B3A|GBag fdef|g2fg ~B3A|GBdc BGBd|
g2fg ~B3A|GBag fdcA|GBdB cdef|gbaf ~g3||
